src/assets/filled/Chrome.svg

<svg width="24" height="24" viewBox="0 0 24 24"  xmlns="http://www.w3.org/2000/svg">
<path d="M11.82 6.9C14.68 6.28 17.58 6.19 20.45 6.66C18.68 3.86 15.56 2 12 2C8.89002 2 6.11002 3.42 4.27002 5.65C4.71002 6.95 5.27002 8.19 5.94002 9.37C6.32002 10.05 7.29002 10.02 7.68002 9.35C8.53002 7.92 10.06 6.96 11.82 6.9Z" />
<path d="M7.72002 14.7204C5.72002 12.5804 4.16002 10.1404 3.09002 7.44043C1.59002 10.4004 1.60002 14.0304 3.43002 17.0804C5.03002 19.7504 7.67002 21.4104 10.53 21.8404C11.42 20.7904 12.2 19.6704 12.87 18.5004C13.26 17.8204 12.73 17.0104 11.95 17.0104C10.28 17.0204 8.67002 16.2004 7.72002 14.7204Z" />
<path d="M8.57007 12.0001C8.57007 12.6101 8.72007 13.1801 9.03007 13.7201C9.64007 14.7701 10.7701 15.4301 11.9901 15.4301C13.2101 15.4301 14.3501 14.7701 14.9501 13.7201C15.2601 13.1801 15.4201 12.6101 15.4201 12.0001C15.4201 10.1101 13.8801 8.58013 11.9901 8.58013C10.1101 8.57013 8.57007 10.1101 8.57007 12.0001Z" />
<path d="M21.3399 8.42028C19.9699 8.13028 18.5799 7.97028 17.1999 7.95028C16.4099 7.94028 15.9599 8.80028 16.3499 9.49028C16.7499 10.2003 16.9799 11.0203 16.9799 11.8903C16.9799 12.7303 16.7599 13.5603 16.3499 14.3003C15.4099 17.1803 14.0099 19.7403 12.1599 22.0003C17.6099 21.9103 21.9999 17.4703 21.9999 12.0003C21.9999 10.7403 21.7699 9.53028 21.3399 8.42028Z" />
</svg>

<?xml version="1.0" encoding="UTF-8"?>
<svg width="24" height="24" viewBox="0 0 24 24" xmlns="http://www.w3.org/2000/svg">
 <path d="m11.82 6.9c2.86-0.62 5.76-0.71 8.63-0.24-1.77-2.8-4.89-4.66-8.45-4.66-3.11 0-5.89 1.42-7.73 3.65 0.44 1.3 1 2.54 1.67 3.72 0.38 0.68 1.35 0.65 1.74-0.02 0.85-1.43 2.38-2.39 4.14-2.45z"/>
 <path d="m7.72 14.72c-2-2.14-3.56-4.58-4.63-7.28-1.5 2.96-1.49 6.59 0.34 9.64 1.6 2.67 4.24 4.33 7.1 4.76 0.89-1.05 1.67-2.17 2.34-3.34 0.39-0.68-0.14-1.49-0.92-1.49-1.67 0.01-3.28-0.81-4.23-2.29z"/>
 <path d="m8.5701 12c0 0.61 0.15 1.18 0.46 1.72 0.61 1.05 1.74 1.71 2.96 1.71s2.36-0.66 2.96-1.71c0.31-0.54 0.47-1.11 0.47-1.72 0-1.89-1.54-3.42-3.43-3.42-1.88-0.01-3.42 1.53-3.42 3.42z"/>
 <path d="m21.34 8.4203c-1.37-0.29-2.76-0.45-4.14-0.47-0.79-0.01-1.24 0.85-0.85 1.54 0.4 0.71002 0.63 1.53 0.63 2.4 0 0.84-0.22 1.67-0.63 2.41-0.94 2.88-2.34 5.44-4.19 7.7 5.45-0.09 9.84-4.53 9.84-10 0-1.26-0.23-2.47-0.66-3.58z"/>
</svg>
